assets/emojis/ios.svg

<svg width="32" height="20" viewBox="0 0 32 20" xmlns="http://www.w3.org/2000/svg">
<g clip-path="url(#clip0_7_9)">
<path d="M0 4V0H4V4H0ZM0 20V8H4V20H0ZM14 20H10C8.9 20 7.95833 19.6083 7.175 18.825C6.39167 18.0417 6 17.1 6 16V4C6 2.9 6.39167 1.95833 7.175 1.175C7.95833 0.391667 8.9 0 10 0H14C15.1 0 16.0417 0.391667 16.825 1.175C17.6083 1.95833 18 2.9 18 4V16C18 17.1 17.6083 18.0417 16.825 18.825C16.0417 19.6083 15.1 20 14 20ZM10 16H14V4H10V16ZM20 20V16H28V12H24C22.9 12 21.9583 11.6083 21.175 10.825C20.3917 10.0417 20 9.1 20 8V4C20 2.9 20.3917 1.95833 21.175 1.175C21.9583 0.391667 22.9 0 24 0H32V4H24V8H28C29.1 8 30.0417 8.39167 30.825 9.175C31.6083 9.95833 32 10.9 32 12V16C32 17.1 31.6083 18.0417 30.825 18.825C30.0417 19.6083 29.1 20 28 20H20Z" />
</g>
<defs>
<clipPath id="clip0_7_9">
<rect width="32" height="20" fill="white"/>
</clipPath>
</defs>
</svg>

<svg xmlns="http://www.w3.org/2000/svg" viewBox="0 0 32 20"><g clip-path="url(#a)"><path d="M0 4V0h4v4H0zm0 16V8h4v12H0zm14 0h-4a3.9 3.9 0 0 1-2.8-1.2A3.9 3.9 0 0 1 6 16V4a3.9 3.9 0 0 1 1.2-2.8A3.9 3.9 0 0 1 10 0h4a3.9 3.9 0 0 1 2.8 1.2A3.9 3.9 0 0 1 18 4v12a3.9 3.9 0 0 1-1.2 2.8A3.9 3.9 0 0 1 14 20zm-4-4h4V4h-4v12zm10 4v-4h8v-4h-4a3.9 3.9 0 0 1-2.8-1.2A3.9 3.9 0 0 1 20 8V4a3.9 3.9 0 0 1 1.2-2.8A3.9 3.9 0 0 1 24 0h8v4h-8v4h4a3.9 3.9 0 0 1 2.8 1.2A3.9 3.9 0 0 1 32 12v4a3.9 3.9 0 0 1-1.2 2.8A3.9 3.9 0 0 1 28 20h-8z"/></g><defs><clipPath id="a"><path fill="#fff" d="M0 0h32v20H0z"/></clipPath></defs></svg>
